!!!!SEGMENT: pl-wumfc--r313--002_paderewski-ignacy-jan--vocal-pieces-op-7-siwy-koniu.krn
!!!cenid: 18xx:3387
!!!COM: Paderewski, Ignacy Jan
!!!COM-rismid: pe30029943
!!!CDT: 1860/11/18-1941/06/29
!!!CNT: Polish
!!!GTL: [Vocal pieces op. 7]
!!!OTL: Siwy koniu
!!!PDT:
!!!AGN:
!!!SMS-siglum: PL-Wumfc
!!!SMS-shelfmark: R313
!!!SMS-shelfwork: 002 G
!!!SMS-variant:
!!!SMS-altvar:
!!!NIFC-rismid: 1001159536
!!!URL-scan: http://repozytorium.nifc.pl/skany/pl-wumfc--r313
!!!ONB-nifc:
!!!OMD: Allegretto.
!!!AIN: 2 piano 1 vox
!!!key: G
**kern	**kern	**dynam	**kern	**text	**text	**dynam
*part3	*part2	*part2	*part1	*part1	*part1	*part1
*staff3	*staff2	*	*staff1	*staff1	*staff1	*
*I"[Fortepian]	*I"[Fortepian]	*	*I"[Głos]	*	*	*
*I'pf	*I'pf	*	*I'V	*	*	*
*Ipiano	*Ipiano	*	*Ivox	*	*	*
*ICklav	*ICklav	*	*ICxov	*	*	*
*IGacmp	*IGacmp	*	*IGsolo	*	*	*
*clefF4	*clefG2	*	*clefG2	*	*	*
*k[f#]	*k[f#]	*	*k[f#]	*	*	*
*G:	*G:	*	*G:	*	*	*
*M2/4	*M2/4	*	*M2/4	*	*	*
=1	=1	=1	=1	=1	=1	=1
8GG'\L	8r	.	2r	.	.	.
8D'\	8B/ 8e 8g	.	.	.	.	.
8d'\	8r	.	.	.	.	.
8D'\J	8c/ 8e 8f#	.	.	.	.	.
=2	=2	=2	=2	=2	=2	=2
8GG'\L	8r	.	2r	.	.	.
8D'\	8B/ 8e 8g	.	.	.	.	.
8d'\	8r	.	.	.	.	.
8D'\J	8c/ 8e 8f# 8a	.	.	.	.	.
=3	=3	=3	=3	=3	=3	=3
8GG'\L	8r	.	2r	.	.	.
8D'\	8B/ 8e 8g 8b	.	.	.	.	.
8d'\	8r	.	.	.	.	.
8D'\J	8c/ 8f# 8a	.	.	.	.	.
=4	=4	=4	=4	=4	=4	=4
8GG'\L	8r	.	2r	.	.	.
8D'\	8B/ 8d 8g 8b	.	.	.	.	.
8d'\	8r	.	.	.	.	.
8D';>\J	8c;>/ 8f# 8dd	.	.	.	.	.
=5	=5	=5	=5	=5	=5	=5
!	!	!LO:DY:t=p.	!	!	!	!
8GG\L	8r	p	8b\	Si-	Gra-	.
8D\	8c/ 8e 8f#	.	8a/	-wy	-ues	.
8d\	8r	.	8g/	Ko-	Rüs-	.
8D\J	8c/ 8e 8f#	.	8a/	-niu	-slein	.
!!LO:LB:g=original
=6	=6	=6	=6	=6	=6	=6
8GG\	8B/ 8d 8g	.	8b\	si-	gra-	.
4D\	8r	.	8a/	-wy	-ues	.
.	8r	.	8b\	Ko-	Rüs-	.
8D\	8c/ 8e 8f#	.	8cc\	-niu	-slein!	.
=7	=7	=7	=7	=7	=7	=7
*	*^	*	*	*	*	*
8GG\	8B/ 8d 8g	8ryy	.	8.dd\	coś	Denkst	.
4D\	4.f#/	(<8e\L	.	.	.	.	.
.	.	.	.	16cc\	tak	wohl	.
.	.	8d\	.	8b\	za-	schwe-	.
8DD\	.	8c\J)	.	8a/	-du-	-re	.
*	*v	*v	*	*	*	*	*
=8	=8	=8	=8	=8	=8	=8
4GG\	4B/ 4d 4g	.	8b/	-ma-	Din-	.
.	.	.	8g/	-ny?	-ge	.
8G\L	4r	.	4r	.	.	.
8D\J	.	.	.	.	.	.
=9	=9	=9	=9	=9	=9	=9
8C\L 8G	8e/L 8g	p	8ee\	Nie	Wel-	.
8C\J 8G	8e/J 8g	<	8ee\	wiész	-che	.
8BB\L 8G	8d/L 8g	.	8dd\	dro-	Straſ-	.
8BB\J 8G	8d/J 8g	.	8dd\	-gi	-se,	.
=10	=10	=10	=10	=10	=10	=10
8AA\L	8c/L 8e 8a	.	8cc\	nie	wel-	.
8AA\J	8c/J 8e 8a	[	8cc\	wiész	-che	.
8E\L	8B/L 8e 8g	.	8b\	dro-	Straſ-	.
8E\J	8B/J 8e 8g	.	8b\	-gi	-se	.
!!LO:LB:g=original
=11	=11	=11	=11	=11	=11	=11
*^	*	*	*	*	*	*
4B/	(>8BB\L	(<8d^>/L 8f#	.	8dd\	do	mich	.
!	!	!	!	!LO:TX:a:t=rallentando.	!	!	!
.	8E\J)	8e/J) 8g	.	8b\	méj	zur	.
4B/	(>8BB\L	(<8d^>/L 8f#	.	8dd\	u-	Lieb-	.
.	8E\J)	8e/J) 8g	.	8b\	-ko-	-sten	.
=12	=12	=12	=12	=12	=12	=12	=12
4B/	(>8BB\L	(>8d\L 8f# 8dd	.	4.dd\	-cha-	brin-	.
.	8E\J)	8e\J) 8g 8b	.	.	.	.	.
4ryy	8BB\L 8B	8d\L 8f# 8dd	.	.	.	.	.
.	8D\J 8A	8d\J 8f# 8a	.	8a/	-nej	-ge.	.
=13	=13	=13	=13	=13	=13	=13	=13
!	!	!	!LO:DY:a:t=pp.	!	!	!	!
4A/	(>8AA\L	(>8c\L 8e 8cc	pp	2r	.	.	.
.	8D\J)	8d\J) 8f# 8a	.	.	.	.	.
4A/	(>8AA\L	(>8c\L 8e 8cc	.	.	.	.	.
.	8D\J)	8d\J) 8f# 8a	.	.	.	.	.
*v	*v	*	*	*	*	*	*
=14	=14	=14	=14	=14	=14	=14
*	*^	*	*	*	*	*
4AA\ 4A	4c\ 4e 4cc	4ryy	.	2r	.	.	.
(>8D\L	4a/	(<8d\L 8fn	.	.	.	.	.
16E\L	.	16g\L	.	.	.	.	.
16D\JJ)	.	16f\JJ)	.	.	.	.	.
=15	=15	=15	=15	=15	=15	=15	=15
(>8C\L	4e/	(<8e\L	.	8e/	Na-	Un-	.
16BB\L	.	16d\L	.	8f#/	-sza	-ser	.
16AA\JJ)	.	16c\JJ)	.	.	.	.	.
8GG'>\L	4e/	8B'<\L	.	8g/	mi-	Lieb	.
8FF#'>\J	.	8A'<\J	.	8a/	-ła	hat	.
*	*v	*v	*	*	*	*	*
!!LO:LB:g=original
=16	=16	=16	=16	=16	=16	=16
*^	*	*	*	*	*	*
(8A/L	4BB\	4d#X/	.	8b\	nas	uns	.
16B/L	.	.	.	8b\	rzu-	ver-	.
16A/JJ)	.	.	.	.	.	.	.
(16A/LL	4C\	4e/	.	8b\	-ci-	-las-	.
16B/J	.	.	.	.	.	.	.
8G/J)	.	.	.	8e/	-ła	-sen	.
=17	=17	=17	=17	=17	=17	=17	=17
*	*	*^	*	*	*	*	*
4G/	8E\L	4g/	8g\L	.	8g/	nie	O-	.
.	(>16D\L	.	16f#\L	.	8a/	wy-	-hne	.
.	16C#X\JJ	.	16e\JJ	.	.	.	.	.
4ryy	8BB'\L)	4g/	8d\L	.	8b\	-rzekł-	es	.
.	8AA#X'\J	.	8c#X\J	.	8cc#X\	-szy	zu	.
*v	*v	*	*	*	*	*	*	*
=18	=18	=18	=18	=18	=18	=18	=18
[>4D#X\	4f##X/	8c#X\L	.	(>8dd#X\L	sło-	Kün-	.
.	.	(>16d#X\L	.	16b\L	.	.	.
.	.	16c#\JJ)	.	16cc#X\J	.	.	.
!	!LO:TX:b:i:t=rit.	!	!	!LO:TX:b:t=rit.	!	!	!
4GG#X\ 4D#]	4g#X/	(>16c#\LL	.	8dd#\J)	.	.	.
.	.	16d#\J	.	.	.	.	.
!	!	!	!	!	!	!	!LO:DY:a:t=p.
.	.	8B\J)	.	8dd#\	-wa	-sten,	p
*	*v	*v	*	*	*	*	*
=19	=19	=19	=19	=19	=19	=19
4GG#X\ 4G#X	4B/ 4fn 4b	.	8ddn\	Jak	Wit-	.
.	.	.	8ee\	nie	-terst	.
4AA\ 4A	4c/ 4e 4a	.	8dd\	znaj-	du	.
.	.	.	8cc\	-dziesz	nicht	.
=20	=20	=20	=20	=20	=20	=20
4DD#X\ 4D#X	4A/ 4c 4f#X	.	8a/	do	nach	.
.	.	.	8b/	niej	vie	.
4EE\ 4E	4G</ 4B< 4e	.	8a/	dro-	Straſ-	.
.	.	.	8g/	-gi	-se	.
!!LO:PB:g=original
=21	=21	=21	=21	=21	=21	=21
2AA\	2F#</ 2c 2e	.	8f#/	zgi-	Kann	.
.	.	.	8g/	-nąć	sie	.
.	.	.	8f#/	nam	uns	.
.	.	.	8cc\	go-	ent-	.
=22	=22	=22	=22	=22	=22	=22
*^	*^	*	*	*	*	*
!	!	!	!	!	!LO:TX:t=P:problem=mixed beam	!	!	!
2F#/	2BB\	2d#X/	4B\	.	8b\L	-to-	-schwin-	.
.	.	.	.	.	8a/J	.	.	.
!	!	!	!	!	!LO:TUP:a:problem=klamra łukowa	!	!	!
.	.	.	4A\	.	12g/L	.	.	.
.	.	.	.	.	12a/	.	.	.
.	.	.	.	.	12f#/J	-wa	-den,	.
*v	*v	*	*	*	*	*	*	*
*	*v	*v	*	*	*	*	*
=23	=23	=23	=23	=23	=23	=23
4C\	4E</ 4G< 4e	.	8e/	zgi-	kann	.
.	.	.	8g/	-nąć	sie	.
4FF#\	4E</ 4A#X< 4e	.	8f#/	nam	uns	.
.	.	.	8cc\	go-	et-	.
=24	=24	=24	=24	=24	=24	=24
!	!	!	!	!	!	!LO:DY:a
4BBB\ 4BB	4D#X</ 4B< 4d#X	.	4.b\	-to-	-schwin-	<
4EE-X\	4E-X</ 4G< 4B< 4e-X	.	.	.	.	.
.	.	.	8b,\	-wa	-den.	[
=25	=25	=25	=25	=25	=25	=25
!	!	!	!LO:TX:a:t=a tempo.	!	!	!
8GGG\ 8GG	8Dn</ 8G< 8B< 8dn	.	8b\	Si-	Gra-	.
8D\L	8c/ 8e 8f#	.	8a/	-wy	-ues	.
8d\	8r	.	8g/	Ko-	Rüs-	.
8D\J	8c/ 8e 8f#	.	8a/	-niu	-slein,	.
!!LO:LB:g=original
=26	=26	=26	=26	=26	=26	=26
8GG\	8B/ 8d 8g	.	8b\	Si-	gra-	.
4D\	8r	.	8a/	-wy	-ues	.
.	8r	.	8b\	Ko-	Rüs-	.
8D\	(>(<8c/ 8e 8f#	.	8cc\	-niu	-slein,	.
=27	=27	=27	=27	=27	=27	=27
*	*^	*	*	*	*	*
8AA\	8B/)) 8d 8g	8ryy	.	8dd\	Cię-	Schwer	.
4D\	4.f#/	(<8e\L	.	8cc\	-żko	musst	.
.	.	8d\	.	8b\	to-	du	.
8DD\	.	8c\J)	.	8a/	-bie	jetzt	.
*	*v	*v	*	*	*	*	*
=28	=28	=28	=28	=28	=28	=28
8GG\L	4.B/ 4.d 4.g	.	4b/	bę-	lau-	.
8D\	.	.	.	.	.	.
8G\	.	.	8g/	-dzie	-fen,	.
8GG\J	8r	.	8r	.	.	.
=29	=29	=29	=29	=29	=29	=29
(>16CC\LL	8G</L 8e 8g	.	8ee\	Prze-	ü-	.
16GG\J	.	.	.	.	.	.
!	!	!	!	!	!	!LO:DY:a
8CC\J)	8G</J 8e 8g	.	8ee\	-go-	-ber-	<
(>16CC\LL	8G</L 8d 8g	.	8dd\	-ni-	-ha-	.
16GG\J	.	.	.	.	.	.
!	!LO:TX:b:t=cres-cen-do:ext=cd:problem=dynamics with extention lines	!LO:HP:t=cres-cen-do:ext=cd	!	!	!	!
8CC\J)	8G</J 8d 8g	<	8dd\	-my	-len	.
=30	=30	=30	=30	=30	=30	=30
16AAA\LL	8A</L 8c 8e	.	8cc\	wiatr	win-	.
16EE\	.	.	.	.	.	.
16AAA\	8A</J 8c 8e	.	8cc\	co	-des	.
16EE\JJ	.	.	.	.	.	.
*8ba	*	*	*	*	*	*
16EEE\LL	8G</L 8B 8e	.	8b\	wie-	we-	[
16EE\	.	.	.	.	.	.
16EEE\	8G</J 8B 8e	.	8b\	-je	-hen,	.
16EE\JJ	.	.	.	.	.	.
*X8ba	*	*	*	*	*	*
!!LO:LB:g=original
=31	=31	=31	=31	=31	=31	=31
!LO:TUP:a:problem=klamra łukowa	!	!	!	!	!	!
24BBB\LL	8r	.	8dd\	nie	O-	.
24FF#\	.	.	.	.	.	.
24D\JJ	.	.	.	.	.	.
!	!LO:TUP:a:problem=klamra łukowa	!	!	!	!	!LO:DY:a
8rGG	24D</LL	.	8b\	spo-	-hne	<
.	24F#</	.	.	.	.	.
.	24d/JJ	.	.	.	.	.
!LO:TUP:a:problem=klamra łukowa	!	!	!	!	!	!
24BB\LL	8r	.	8dd\	-cznie-	aus-	.
24F#\	.	.	.	.	.	.
24B\JJ	.	.	.	.	.	.
!	!LO:TUP:b:problem=klamra łukowa	!	!	!	!	!
8r	24d/LL	<	8b\	-my	-zu-	.
.	24f#/	.	.	.	.	.
.	24dd/JJ	.	.	.	.	.
=32	=32	=32	=32	=32	=32	=32
!LO:TUP:a:problem=klamra łukowa	!	!	!	!	!	!
24AAA\LL	8r	.	4.dd\	w_pę-	-schnau-	.
24DD\	.	.	.	.	.	.
24C\JJ	.	[	.	.	.	.
!	!LO:TUP:a:problem=klamra łukowa	!	!	!	!	!
8r	24D/LL	.	.	.	.	.
.	24F#/	.	.	.	.	.
.	24d/JJ	.	.	.	.	.
!LO:TUP:a:problem=klamra łukowa	!	!	!	!	!	!
24AA\LL	8r	.	.	.	.	.
24D\	.	.	.	.	.	.
24c\JJ	.	.	.	.	.	.
!	!LO:TUP:b:problem=klamra łukowa	!	!	!	!	!
8r	24d/LL	.	8dd\	-dzie	-fen	[
.	24f#/	.	.	.	.	.
.	24dd/JJ	.	.	.	.	.
=33	=33	=33	=33	=33	=33	=33
*^	*	*	*	*	*	*
!	!	!	!	!LO:TX:a:t=rit	!	!	!LO:DY:a
8ryy	16GGG\LL	8r<	f	8.gg\	Si-	Gra-	f
.	16GG\JJ	.	.	.	.	.	.
!	!	!LO:TUP:a:problem=klamra łukowa	!	!	!	!	!
8rGG	40ryy	40D</LLL	.	.	.	.	.
.	40ryy	40G</	.	.	.	.	.
.	40ryy	40B</	.	.	.	.	.
.	.	.	.	16ee\	-wy	-ues	.
.	40ryy	40d</JJJ	.	.	.	.	.
.	[>40D\	40ryy	.	.	.	.	.
4A/ 4c	4D\]	4d/ 4f# 4dd	.	8dd\	Ko-	Rüs-	.
.	.	.	.	8dd\	-niu	-slein,	.
=34	=34	=34	=34	=34	=34	=34	=34
8ryy	16GGG\LL	8r<	.	8ee\	Si-	gra-	.
.	16GG\JJ	.	.	.	.	.	.
!	!	!LO:TUP:a:problem=klamra łukowa	!	!	!	!	!
8rGG	40ryy	40D</LLL	.	8b\	-wy	-ues	.
.	40ryy	40G</	.	.	.	.	.
.	40ryy	40B</	.	.	.	.	.
.	40ryy	40d</JJJ	.	.	.	.	.
.	[>40D\	40ryy	.	.	.	.	.
4A/ 4c	4D\]	4d/ 4f# 4dd	.	8dd\	Ko-	Rüs-	.
.	.	.	.	8dd\	-niu	-slein,	.
=35	=35	=35	=35	=35	=35	=35	=35
8ryy	16GGG\LL	8r<	.	8cc\	cię-	mir	.
.	16GG\JJ	.	.	.	.	.	.
!	!	!LO:TUP:a:problem=klamra łukowa	!	!	!	!	!
8rGG	40ryy	40E-X</LLL	.	8b\	-żej	wind	.
.	40ryy	40G</	.	.	.	.	.
.	40ryy	40A</	.	.	.	.	.
.	40ryy	40e-X</JJJ	.	.	.	.	.
.	[>40E-\	40ryy	.	.	.	.	.
4A/ 4e-	4E-\]	4g\ 4cc 4gg	.	8a/	ser-	schwer	.
.	.	.	.	8g/	-cu	am	.
!!LO:LB:g=original
=36	=36	=36	=36	=36	=36	=36	=36
8ryy	16GGG\LL	8r<	.	4.b/	me-	Her-	.
.	16GG\JJ	.	.	.	.	.	.
!	!	!LO:TUP:a:problem=klamra łukowa	!	!	!	!	!
8r	40ryy	40E-X</LLL	.	.	.	.	.
.	40ryy	40G</	.	.	.	.	.
.	40ryy	40A</	.	.	.	.	.
.	40ryy	40e-X</JJJ	.	.	.	.	.
.	[>40E-\	40ryy	.	.	.	.	.
4G/ 4e-	4E-\]	4b\ 4ee-X 4bb	.	.	.	.	.
.	.	.	.	8e-X/	-mu	-zen	.
=37	=37	=37	=37	=37	=37	=37	=37
!	!	!	!LO:DY:a:t=p.	!	!	!	!
8GG\ 8G	8ryy	8b\ 8dd 8bb	p	8d/	Bo	denn	.
4.G/	8BB\L	8d/L 8g	<	8g/	stra-	die	.
.	8C\	8e/ 8a	.	8a/	-ci-	Hof-	.
.	8D\J	8f#/J 8b	[	8b/	-ło	-fnung	.
=38	=38	=38	=38	=38	=38	=38	=38
*	*	*	*^	*	*	*	*
!	!	!	!LO:HP:a	!LO:HP:b=2	!LO:TX:a:t=rallentando molto:problem=text with extention	!	!	!
4G/	(>8C\L	(>8e\L 8dd	>	>	8dd\	już	floh	.
.	8GG\J)	8d\J) 8b	]	]	8b\	na-	und	.
!	!	!	!LO:HP:a	!	!	!	!	!
4G/	8C\L	(>8e\L 8dd	>	.	8dd\	-dzie-	e-	.
.	8GG\J	8d\J) 8b	]	.	8b\	-ję	-wig	.
*	*	*	*v	*v	*	*	*	*
=39	=39	=39	=39	=39	=39	=39	=39
4B/	(>8BB\L	(>8d/L 8f# 8dd	>	8dd\	sa-	fühl	.
.	8E\J)	8e/J) 8g 8b	]	8b\	-mo	ich	.
4ryy	8BBB\L 8BB	(>8D</L 8F#< 8d<	>	8dd\	nie	Tren-	.
.	8EE\J 8BB	8E</J) 8G< 8B<	]	8b\	wie	-nungs	.
*v	*v	*	*	*	*	*	*
=40	=40	=40	=40	=40	=40	=40
!	!	!	!LO:N:vis=2	!	!	!
4AAA\ 4AA	4E</ 4G< 4c 4e	>	(4a/	cze-	schmer-	.
4DD\ 4AA	4F#</ 4c< 4d 4f#	]	4g/)	.	.	.
!!LO:PB:g=original
=41	=41	=41	=41	=41	=41	=41
8GGG\ 8GG	8G/L 8B 8d 8g	.	4g/	-mu.	-zen.	.
8D'\L	8B/J 8e 8g	.	.	.	.	.
!	!LO:TX:a:t=(O.18/9. 85 r.)	!	!	!	!	!
8d'\	8r	.	4r	.	.	.
8D'\J	8c/ 8e 8f#	.	.	.	.	.
=42	=42	=42	=42	=42	=42	=42
8GG'\L	8r	.	2r	.	.	.
8D'\	8B/ 8e 8g	.	.	.	.	.
8d'\	8r	.	.	.	.	.
8D'\J	8c/ 8e 8f# 8a	.	.	.	.	.
=43	=43	=43	=43	=43	=43	=43
8GG\L	8r	.	2r	.	.	.
8D\	8B/ 8d 8g 8b	.	.	.	.	.
8d\	8r	.	.	.	.	.
8D\J	8c/ 8f# 8a 8dd	.	.	.	.	.
=44	=44	=44	=44	=44	=44	=44
8GG\L	8r	.	2r	.	.	.
8D\	8g\ 8b 8ee 8gg	.	.	.	.	.
8d\	8r	.	.	.	.	.
8D\J	8a\ 8cc 8ff# 8aa	.	.	.	.	.
=45	=45	=45	=45	=45	=45	=45
*	*ped	*	*	*	*	*
8GG\L	8r	.	2r	.	.	.
8D\	[8b\ [8dd [8gg [8bb	.	.	.	.	.
8G\	4b\] 4dd] 4gg] 4bb]	.	.	.	.	.
8d\J	.	.	.	.	.	.
=46	=46	=46	=46	=46	=46	=46
*clefG2	*	*	*	*	*	*
*	*8va	*	*	*	*	*
2g;\ 2dd	2bb;\ 2ddd 2ggg 2bbb	.	2r	.	.	.
*	*X8va	*	*	*	*	*
*	*Xped	*	*	*	*	*
!!LO:LB:g=original
==	==	==	==	==	==	==
*-	*-	*-	*-	*-	*-	*-
!!!system-decoration: s1{(s2,s3)}
!!!RDF**kern: < = below
!!!RDF**kern: > = above
!!!ENC: Anastazja Marusiak
!!!END: 2021-12-06
!!!ENC: Marta Chmielewska
!!!END: 2021-12-20
